parts/toprotor.svg

<?xml version="1.0" encoding="utf-8"?>
<!-- Generator: Adobe Illustrator 24.2.3, SVG Export Plug-In . SVG Version: 6.00 Build 0)  -->
<svg version="1.1" id="Layer_1" xmlns="http://www.w3.org/2000/svg" xmlns:xlink="http://www.w3.org/1999/xlink" x="0px" y="0px"
	 viewBox="0 0 152.39 100.69" style="enable-background:new 0 0 152.39 100.69;" xml:space="preserve">
<style type="text/css">
	.st0{fill:none;stroke:#020203;stroke-width:1.44;stroke-linecap:round;stroke-linejoin:round;stroke-miterlimit:10;}
	.st1{fill:none;stroke:#020203;stroke-width:1.44;stroke-linecap:round;stroke-linejoin:bevel;stroke-miterlimit:10;}
</style>
<polyline class="st0" points="88.35,79.99 88.23,80.23 88.11,80.35 87.99,80.47 87.87,80.59 87.75,80.83 87.63,80.95 87.51,81.07 
	87.27,81.19 87.15,81.31 87.03,81.55 86.79,81.67 86.67,81.79 86.55,81.91 86.31,82.03 86.19,82.15 85.95,82.27 85.71,82.39 
	85.59,82.51 85.35,82.63 85.23,82.75 84.75,82.99 84.39,83.23 83.91,83.47 83.43,83.59 82.95,83.83 82.59,84.07 82.11,84.19 
	81.51,84.31 81.03,84.55 80.55,84.67 80.07,84.79 79.83,84.79 79.47,84.91 79.23,84.91 78.99,85.03 78.75,85.03 78.51,85.03 
	78.15,85.15 77.91,85.15 77.67,85.15 77.43,85.27 77.07,85.27 76.83,85.27 76.59,85.27 76.35,85.27 75.99,85.27 75.75,85.39 
	75.51,85.39 75.27,85.39 74.91,85.39 74.67,85.39 74.43,85.39 74.19,85.39 73.83,85.39 73.59,85.27 73.11,85.27 72.51,85.27 
	72.03,85.15 71.43,85.15 70.95,85.03 70.47,84.91 69.99,84.79 69.51,84.67 69.03,84.55 68.55,84.43 68.07,84.31 67.83,84.19 
	67.59,84.19 67.35,84.07 67.11,83.95 66.99,83.95 66.75,83.83 66.51,83.71 66.27,83.59 66.15,83.59 65.91,83.47 65.79,83.35 
	65.55,83.23 65.31,83.11 65.19,82.99 64.95,82.99 64.83,82.87 64.71,82.75 64.47,82.63 64.35,82.51 64.23,82.39 63.99,82.27 
	63.87,82.15 63.75,82.03 63.63,81.91 63.39,81.67 63.15,81.31 62.91,81.07 62.67,80.83 62.55,80.59 62.31,80.23 62.19,79.99 
	62.07,79.75 "/>
<polyline class="st0" points="89.67,79.63 89.67,79.87 89.67,80.11 89.67,80.35 89.67,80.59 89.55,80.83 89.55,81.07 89.43,81.31 
	89.43,81.55 "/>
<polyline class="st1" points="89.43,81.55 89.55,80.71 89.67,79.99 "/>
<polyline class="st0" points="61.83,79.63 61.95,79.75 61.95,79.99 62.07,80.11 62.07,80.23 62.19,80.35 62.19,80.59 62.31,80.71 
	62.31,80.83 62.43,80.95 62.55,81.19 62.67,81.31 62.79,81.43 62.91,81.55 63.03,81.67 63.15,81.91 63.27,82.03 63.39,82.15 
	63.51,82.27 63.63,82.39 63.75,82.51 63.99,82.63 64.11,82.75 64.23,82.87 64.47,82.99 64.59,83.11 64.83,83.23 64.95,83.35 
	65.19,83.47 65.31,83.59 65.55,83.71 65.79,83.83 65.91,83.95 66.15,84.07 66.39,84.19 66.63,84.31 66.87,84.31 66.99,84.43 
	67.23,84.55 67.47,84.67 67.71,84.67 67.95,84.79 68.19,84.91 68.43,84.91 68.67,85.03 68.91,85.15 69.27,85.15 69.51,85.27 
	69.75,85.27 69.99,85.39 70.23,85.39 70.47,85.51 70.83,85.51 71.07,85.51 71.31,85.63 71.67,85.63 71.91,85.63 72.15,85.75 
	72.51,85.75 72.75,85.75 72.99,85.75 73.35,85.87 73.59,85.87 73.83,85.87 74.19,85.87 74.43,85.87 74.79,85.87 75.03,85.87 
	75.27,85.87 75.63,85.87 75.87,85.87 76.23,85.75 76.47,85.75 76.71,85.75 77.07,85.75 77.31,85.75 77.67,85.63 77.91,85.63 
	78.15,85.63 78.51,85.51 78.75,85.51 79.11,85.51 79.35,85.39 79.59,85.39 79.95,85.27 80.19,85.27 80.43,85.15 80.67,85.15 
	81.03,85.03 81.27,84.91 81.51,84.91 81.75,84.79 81.99,84.67 82.35,84.67 82.59,84.55 82.83,84.43 83.07,84.31 83.31,84.19 
	83.55,84.07 83.79,84.07 84.03,83.95 84.27,83.83 84.51,83.71 84.63,83.59 84.87,83.47 85.11,83.35 85.35,83.23 85.59,83.11 
	85.71,82.99 85.95,82.75 86.07,82.63 86.31,82.51 86.55,82.39 86.67,82.27 86.91,82.15 87.03,81.91 87.15,81.79 87.39,81.67 
	87.51,81.55 87.63,81.31 87.87,81.19 87.99,81.07 88.11,80.83 88.23,80.71 88.35,80.59 88.47,80.35 88.59,80.23 88.71,80.11 
	88.83,79.87 "/>
<polyline class="st0" points="67.71,81.19 68.07,81.31 68.31,81.43 68.67,81.55 69.03,81.67 69.39,81.79 69.75,81.79 70.23,81.91 
	70.59,82.03 70.95,82.03 71.31,82.15 71.67,82.15 72.15,82.27 72.51,82.27 72.87,82.27 73.35,82.39 73.71,82.39 74.19,82.39 
	74.55,82.39 74.91,82.39 75.39,82.39 75.75,82.39 76.23,82.39 76.59,82.27 76.95,82.27 77.43,82.27 77.79,82.15 78.27,82.15 
	78.63,82.03 78.99,82.03 79.47,81.91 79.83,81.79 80.19,81.79 "/>
<polyline class="st0" points="89.43,81.55 89.31,81.79 89.19,82.03 89.07,82.27 88.83,82.39 88.71,82.63 88.47,82.87 88.35,83.11 
	88.11,83.35 87.87,83.47 87.75,83.71 87.51,83.95 87.27,84.07 87.03,84.31 86.67,84.43 86.43,84.67 86.19,84.79 85.83,85.03 
	85.59,85.15 85.23,85.27 84.99,85.51 84.63,85.63 84.27,85.75 83.91,85.87 83.55,85.99 83.19,86.11 82.83,86.23 82.47,86.35 
	82.11,86.47 81.75,86.59 81.39,86.71 81.03,86.71 80.55,86.83 80.19,86.95 79.83,86.95 79.35,86.95 78.99,87.07 78.63,87.07 
	78.15,87.07 77.79,87.19 77.31,87.19 76.95,87.19 76.47,87.19 76.11,87.19 75.75,87.07 75.27,87.07 74.91,87.07 74.43,87.07 
	74.07,86.95 73.71,86.95 73.23,86.83 72.87,86.71 72.51,86.71 72.15,86.59 71.79,86.47 71.31,86.35 70.95,86.23 70.59,86.11 
	70.23,85.99 69.99,85.87 69.63,85.75 69.27,85.63 69.03,85.51 68.67,85.27 68.31,85.15 "/>
<polyline class="st0" points="81.51,81.55 81.03,81.79 80.67,81.91 80.19,82.03 79.83,82.15 79.35,82.27 79.11,82.39 78.87,82.39 
	78.63,82.39 78.39,82.51 78.15,82.51 77.91,82.51 77.43,82.63 76.95,82.75 76.47,82.75 75.99,82.75 75.51,82.75 75.03,82.75 
	74.55,82.75 74.07,82.75 73.59,82.75 73.11,82.75 72.63,82.75 72.27,82.63 71.79,82.63 71.31,82.51 70.83,82.39 70.47,82.27 
	69.99,82.15 69.63,82.03 69.15,81.91 68.79,81.79 68.55,81.79 68.43,81.67 68.19,81.55 68.07,81.55 67.83,81.43 67.71,81.31 
	67.35,81.19 "/>
<polyline class="st0" points="83.31,84.19 83.07,84.31 82.95,84.43 82.71,84.55 82.47,84.67 82.35,84.79 82.11,84.79 81.87,84.91 
	81.63,85.03 81.39,85.15 81.27,85.15 81.03,85.27 80.79,85.39 80.55,85.39 80.31,85.51 80.07,85.51 79.83,85.63 79.59,85.63 
	79.35,85.75 79.11,85.75 78.87,85.87 78.63,85.87 78.39,85.99 78.15,85.99 77.91,85.99 77.67,86.11 77.43,86.11 77.19,86.11 
	76.83,86.23 76.59,86.23 76.35,86.23 76.11,86.23 75.87,86.23 75.63,86.23 75.39,86.23 75.15,86.23 74.91,86.35 74.55,86.35 
	74.31,86.23 74.07,86.23 73.83,86.23 73.59,86.23 73.35,86.23 73.11,86.23 72.87,86.23 72.63,86.23 72.39,86.11 72.15,86.11 
	71.91,86.11 71.67,85.99 71.43,85.99 71.19,85.99 70.95,85.87 70.71,85.87 70.47,85.75 70.23,85.75 69.99,85.75 69.87,85.63 
	69.63,85.51 69.39,85.51 69.15,85.39 69.03,85.39 68.79,85.27 68.55,85.15 68.31,85.15 "/>
<polyline class="st1" points="67.47,84.55 67.95,84.79 68.43,85.03 "/>
<polyline class="st1" points="145.83,26.71 147.15,25.87 148.11,25.03 148.95,24.07 149.55,23.11 149.91,22.03 150.03,20.95 "/>
<line class="st0" x1="145.83" y1="26.71" x2="105.75" y2="49.87"/>
<polyline class="st1" points="145.83,15.19 147.15,14.35 148.11,13.51 148.95,12.55 149.55,11.59 149.91,10.51 150.03,9.43 
	149.91,8.35 149.55,7.27 148.95,6.31 148.11,5.35 147.15,4.51 145.83,3.67 144.51,2.95 142.95,2.35 141.27,1.87 139.59,1.51 
	137.67,1.39 135.87,1.27 134.07,1.39 132.15,1.51 130.47,1.87 128.79,2.35 127.23,2.95 125.91,3.67 "/>
<path class="st0" d="M80.67,29.59l45.12-26.04 M145.83,15.19l-45.12,26.04"/>
<polyline class="st1" points="80.67,29.71 79.11,29.59 77.43,29.47 75.75,29.47 74.07,29.47 72.39,29.59 70.83,29.71 "/>
<line class="st0" x1="25.59" y1="3.55" x2="70.71" y2="29.59"/>
<polyline class="st1" points="25.59,3.67 24.27,2.95 22.71,2.35 21.03,1.87 19.35,1.51 17.43,1.39 15.63,1.27 13.83,1.39 
	11.91,1.51 10.23,1.87 8.55,2.35 6.99,2.95 5.67,3.67 4.35,4.51 3.39,5.35 2.55,6.31 1.95,7.27 1.59,8.35 1.47,9.43 1.59,10.51 
	1.95,11.59 2.55,12.55 3.39,13.51 4.35,14.35 5.67,15.19 "/>
<line class="st0" x1="50.67" y1="41.23" x2="5.55" y2="15.19"/>
<polyline class="st1" points="50.79,41.23 50.55,42.19 50.31,43.15 50.31,44.11 50.31,45.07 50.55,46.03 50.79,46.99 "/>
<line class="st0" x1="5.55" y1="73.03" x2="50.67" y2="46.99"/>
<polyline class="st1" points="5.67,73.03 4.35,73.87 3.39,74.71 2.55,75.67 1.95,76.63 1.59,77.71 1.47,78.79 1.59,79.87 
	1.95,80.95 2.55,81.91 3.39,82.87 4.35,83.71 5.67,84.55 6.99,85.27 8.55,85.87 10.23,86.35 11.91,86.71 13.83,86.83 15.63,86.95 
	17.43,86.83 19.35,86.71 21.03,86.35 22.71,85.87 24.27,85.27 25.59,84.55 "/>
<line class="st0" x1="70.71" y1="58.51" x2="25.59" y2="84.67"/>
<polyline class="st1" points="70.83,58.51 72.39,58.63 74.07,58.75 75.75,58.75 77.43,58.75 79.11,58.63 80.67,58.51 "/>
<line class="st0" x1="125.79" y1="84.67" x2="80.67" y2="58.51"/>
<polyline class="st1" points="125.91,84.55 127.23,85.27 128.79,85.87 130.47,86.35 132.15,86.71 134.07,86.83 135.87,86.95 
	137.67,86.83 139.59,86.71 141.27,86.35 142.95,85.87 144.51,85.27 145.83,84.55 147.15,83.71 148.11,82.87 148.95,81.91 
	149.55,80.95 149.91,79.87 150.03,78.79 149.91,77.71 149.55,76.63 148.95,75.67 148.11,74.71 147.15,73.87 145.83,73.03 "/>
<line class="st0" x1="100.71" y1="46.99" x2="145.83" y2="73.03"/>
<polyline class="st1" points="100.71,46.99 100.95,46.03 101.19,45.07 101.19,44.11 101.19,43.15 100.95,42.19 100.71,41.23 "/>
<polyline class="st1" points="125.91,96.19 127.23,96.91 128.79,97.51 130.47,97.99 132.15,98.35 134.07,98.47 135.87,98.59 
	137.67,98.47 139.59,98.35 141.27,97.99 142.95,97.51 144.51,96.91 145.83,96.19 147.15,95.35 148.11,94.51 148.95,93.55 
	149.55,92.59 149.91,91.51 150.03,90.43 "/>
<line class="st0" x1="125.79" y1="96.19" x2="80.67" y2="70.15"/>
<polyline class="st1" points="1.47,90.43 1.59,91.51 1.95,92.59 2.55,93.55 3.39,94.51 4.35,95.35 5.67,96.19 6.99,96.91 
	8.55,97.51 10.23,97.99 11.91,98.35 13.83,98.47 15.63,98.59 17.43,98.47 19.35,98.35 21.03,97.99 22.71,97.51 24.27,96.91 
	25.59,96.19 "/>
<line class="st0" x1="70.71" y1="70.15" x2="25.59" y2="96.19"/>
<polyline class="st1" points="1.47,20.95 1.59,22.03 1.95,23.11 2.55,24.07 3.39,25.03 4.35,25.87 5.67,26.71 "/>
<path class="st0" d="M80.67,70.15V58.51 M70.71,58.51v11.64 M45.63,49.87L5.55,26.71"/>
<polyline class="st1" points="57.75,77.59 59.67,78.55 61.59,79.39 63.75,80.23 66.03,80.83 68.31,81.31 70.83,81.67 73.23,81.79 
	75.75,81.91 78.27,81.79 80.67,81.67 83.19,81.31 85.47,80.83 87.75,80.23 89.91,79.39 91.83,78.55 93.75,77.59 "/>
<path class="st0" d="M101.19,47.23v-3.12 M50.19,47.23v-3.12 M1.35,9.43v11.52 M1.35,78.79v11.64 M150.03,78.79v11.64 M150.03,9.43
	v11.52 M89.67,79.87v0.12"/>
</svg>

<svg id="Layer_1" data-name="Layer 1" xmlns="http://www.w3.org/2000/svg" viewBox="0 0 150.12 98.76"><polyline points="87.72 79.44 87.6 79.68 87.48 79.8 87.36 79.92 87.24 80.04 87.12 80.28 87 80.4 86.88 80.52 86.64 80.64 86.52 80.76 86.4 81 86.16 81.12 86.04 81.24 85.92 81.36 85.68 81.48 85.56 81.6 85.32 81.72 85.08 81.84 84.96 81.96 84.72 82.08 84.6 82.2 84.12 82.44 83.76 82.68 83.28 82.92 82.8 83.04 82.32 83.28 81.96 83.52 81.48 83.64 80.88 83.76 80.4 84 79.92 84.12 79.44 84.24 79.2 84.24 78.84 84.36 78.6 84.36 78.36 84.48 78.12 84.48 77.88 84.48 77.52 84.6 77.28 84.6 77.04 84.6 76.8 84.72 76.44 84.72 76.2 84.72 75.96 84.72 75.72 84.72 75.36 84.72 75.12 84.84 74.88 84.84 74.64 84.84 74.28 84.84 74.04 84.84 73.8 84.84 73.56 84.84 73.2 84.84 72.96 84.72 72.48 84.72 71.88 84.72 71.4 84.6 70.8 84.6 70.32 84.48 69.84 84.36 69.36 84.24 68.88 84.12 68.4 84 67.92 83.88 67.44 83.76 67.2 83.64 66.96 83.64 66.72 83.52 66.48 83.4 66.36 83.4 66.12 83.28 65.88 83.16 65.64 83.04 65.52 83.04 65.28 82.92 65.16 82.8 64.92 82.68 64.68 82.56 64.56 82.44 64.32 82.44 64.2 82.32 64.08 82.2 63.84 82.08 63.72 81.96 63.6 81.84 63.36 81.72 63.24 81.6 63.12 81.48 63 81.36 62.76 81.12 62.52 80.76 62.28 80.52 62.04 80.28 61.92 80.04 61.68 79.68 61.56 79.44 61.44 79.2" style="fill:none;stroke:#010101;stroke-linecap:round;stroke-linejoin:round;stroke-width:1.4399999380111694px"/><polyline points="89.04 79.08 89.04 79.32 89.04 79.56 89.04 79.8 89.04 80.04 88.92 80.28 88.92 80.52 88.8 80.76 88.8 81" style="fill:none;stroke:#010101;stroke-linecap:round;stroke-linejoin:round;stroke-width:1.4399999380111694px"/><polyline points="88.8 81 88.92 80.16 89.04 79.44" style="fill:none;stroke:#010101;stroke-linecap:round;stroke-linejoin:bevel;stroke-width:1.4399999380111694px"/><polyline points="61.2 79.08 61.32 79.2 61.32 79.44 61.44 79.56 61.44 79.68 61.56 79.8 61.56 80.04 61.68 80.16 61.68 80.28 61.8 80.4 61.92 80.64 62.04 80.76 62.16 80.88 62.28 81 62.4 81.12 62.52 81.36 62.64 81.48 62.76 81.6 62.88 81.72 63 81.84 63.12 81.96 63.36 82.08 63.48 82.2 63.6 82.32 63.84 82.44 63.96 82.56 64.2 82.68 64.32 82.8 64.56 82.92 64.68 83.04 64.92 83.16 65.16 83.28 65.28 83.4 65.52 83.52 65.76 83.64 66 83.76 66.24 83.76 66.36 83.88 66.6 84 66.84 84.12 67.08 84.12 67.32 84.24 67.56 84.36 67.8 84.36 68.04 84.48 68.28 84.6 68.64 84.6 68.88 84.72 69.12 84.72 69.36 84.84 69.6 84.84 69.84 84.96 70.2 84.96 70.44 84.96 70.68 85.08 71.04 85.08 71.28 85.08 71.52 85.2 71.88 85.2 72.12 85.2 72.36 85.2 72.72 85.32 72.96 85.32 73.2 85.32 73.56 85.32 73.8 85.32 74.16 85.32 74.4 85.32 74.64 85.32 75 85.32 75.24 85.32 75.6 85.2 75.84 85.2 76.08 85.2 76.44 85.2 76.68 85.2 77.04 85.08 77.28 85.08 77.52 85.08 77.88 84.96 78.12 84.96 78.48 84.96 78.72 84.84 78.96 84.84 79.32 84.72 79.56 84.72 79.8 84.6 80.04 84.6 80.4 84.48 80.64 84.36 80.88 84.36 81.12 84.24 81.36 84.12 81.72 84.12 81.96 84 82.2 83.88 82.44 83.76 82.68 83.64 82.92 83.52 83.16 83.52 83.4 83.4 83.64 83.28 83.88 83.16 84 83.04 84.24 82.92 84.48 82.8 84.72 82.68 84.96 82.56 85.08 82.44 85.32 82.2 85.44 82.08 85.68 81.96 85.92 81.84 86.04 81.72 86.28 81.6 86.4 81.36 86.52 81.24 86.76 81.12 86.88 81 87 80.76 87.24 80.64 87.36 80.52 87.48 80.28 87.6 80.16 87.72 80.04 87.84 79.8 87.96 79.68 88.08 79.56 88.2 79.32" style="fill:none;stroke:#010101;stroke-linecap:round;stroke-linejoin:round;stroke-width:1.4399999380111694px"/><polyline points="67.08 80.64 67.44 80.76 67.68 80.88 68.04 81 68.4 81.12 68.76 81.24 69.12 81.24 69.6 81.36 69.96 81.48 70.32 81.48 70.68 81.6 71.04 81.6 71.52 81.72 71.88 81.72 72.24 81.72 72.72 81.84 73.08 81.84 73.56 81.84 73.92 81.84 74.28 81.84 74.76 81.84 75.12 81.84 75.6 81.84 75.96 81.72 76.32 81.72 76.8 81.72 77.16 81.6 77.64 81.6 78 81.48 78.36 81.48 78.84 81.36 79.2 81.24 79.56 81.24" style="fill:none;stroke:#010101;stroke-linecap:round;stroke-linejoin:round;stroke-width:1.4399999380111694px"/><polyline points="88.8 81 88.68 81.24 88.56 81.48 88.44 81.72 88.2 81.84 88.08 82.08 87.84 82.32 87.72 82.56 87.48 82.8 87.24 82.92 87.12 83.16 86.88 83.4 86.64 83.52 86.4 83.76 86.04 83.88 85.8 84.12 85.56 84.24 85.2 84.48 84.96 84.6 84.6 84.72 84.36 84.96 84 85.08 83.64 85.2 83.28 85.32 82.92 85.44 82.56 85.56 82.2 85.68 81.84 85.8 81.48 85.92 81.12 86.04 80.76 86.16 80.4 86.16 79.92 86.28 79.56 86.4 79.2 86.4 78.72 86.4 78.36 86.52 78 86.52 77.52 86.52 77.16 86.64 76.68 86.64 76.32 86.64 75.84 86.64 75.48 86.64 75.12 86.52 74.64 86.52 74.28 86.52 73.8 86.52 73.44 86.4 73.08 86.4 72.6 86.28 72.24 86.16 71.88 86.16 71.52 86.04 71.16 85.92 70.68 85.8 70.32 85.68 69.96 85.56 69.6 85.44 69.36 85.32 69 85.2 68.64 85.08 68.4 84.96 68.04 84.72 67.68 84.6" style="fill:none;stroke:#010101;stroke-linecap:round;stroke-linejoin:round;stroke-width:1.4399999380111694px"/><polyline points="80.88 81 80.4 81.24 80.04 81.36 79.56 81.48 79.2 81.6 78.72 81.72 78.48 81.84 78.24 81.84 78 81.84 77.76 81.96 77.52 81.96 77.28 81.96 76.8 82.08 76.32 82.2 75.84 82.2 75.36 82.2 74.88 82.2 74.4 82.2 73.92 82.2 73.44 82.2 72.96 82.2 72.48 82.2 72 82.2 71.64 82.08 71.16 82.08 70.68 81.96 70.2 81.84 69.84 81.72 69.36 81.6 69 81.48 68.52 81.36 68.16 81.24 67.92 81.24 67.8 81.12 67.56 81 67.44 81 67.2 80.88 67.08 80.76 66.72 80.64" style="fill:none;stroke:#010101;stroke-linecap:round;stroke-linejoin:round;stroke-width:1.4399999380111694px"/><polyline points="82.68 83.64 82.44 83.76 82.32 83.88 82.08 84 81.84 84.12 81.72 84.24 81.48 84.24 81.24 84.36 81 84.48 80.76 84.6 80.64 84.6 80.4 84.72 80.16 84.84 79.92 84.84 79.68 84.96 79.44 84.96 79.2 85.08 78.96 85.08 78.72 85.2 78.48 85.2 78.24 85.32 78 85.32 77.76 85.44 77.52 85.44 77.28 85.44 77.04 85.56 76.8 85.56 76.56 85.56 76.2 85.68 75.96 85.68 75.72 85.68 75.48 85.68 75.24 85.68 75 85.68 74.76 85.68 74.52 85.68 74.28 85.8 73.92 85.8 73.68 85.68 73.44 85.68 73.2 85.68 72.96 85.68 72.72 85.68 72.48 85.68 72.24 85.68 72 85.68 71.76 85.56 71.52 85.56 71.28 85.56 71.04 85.44 70.8 85.44 70.56 85.44 70.32 85.32 70.08 85.32 69.84 85.2 69.6 85.2 69.36 85.2 69.24 85.08 69 84.96 68.76 84.96 68.52 84.84 68.4 84.84 68.16 84.72 67.92 84.6 67.68 84.6" style="fill:none;stroke:#010101;stroke-linecap:round;stroke-linejoin:round;stroke-width:1.4399999380111694px"/><polyline points="66.84 84 67.32 84.24 67.8 84.48" style="fill:none;stroke:#010101;stroke-linecap:round;stroke-linejoin:bevel;stroke-width:1.4399999380111694px"/><polyline points="145.2 26.16 146.52 25.32 147.48 24.48 148.32 23.52 148.92 22.56 149.28 21.48 149.4 20.4" style="fill:none;stroke:#010101;stroke-linecap:round;stroke-linejoin:bevel;stroke-width:1.4399999380111694px"/><line x1="145.2" y1="26.16" x2="105.12" y2="49.32" style="fill:none;stroke:#010101;stroke-linecap:round;stroke-linejoin:round;stroke-width:1.4399999380111694px"/><polyline points="145.2 14.64 146.52 13.8 147.48 12.96 148.32 12 148.92 11.04 149.28 9.96 149.4 8.88 149.28 7.8 148.92 6.72 148.32 5.76 147.48 4.8 146.52 3.96 145.2 3.12 143.88 2.4 142.32 1.8 140.64 1.32 138.96 0.96 137.04 0.84 135.24 0.72 133.44 0.84 131.52 0.96 129.84 1.32 128.16 1.8 126.6 2.4 125.28 3.12" style="fill:none;stroke:#010101;stroke-linecap:round;stroke-linejoin:bevel;stroke-width:1.4399999380111694px"/><path d="M80.67,29.59l45.12-26m20,11.64-45.12,26" transform="translate(-0.63 -0.55)" style="fill:none;stroke:#010101;stroke-linecap:round;stroke-linejoin:round;stroke-width:1.4399999380111694px"/><polyline points="80.04 29.16 78.48 29.04 76.8 28.92 75.12 28.92 73.44 28.92 71.76 29.04 70.2 29.16" style="fill:none;stroke:#010101;stroke-linecap:round;stroke-linejoin:bevel;stroke-width:1.4399999380111694px"/><line x1="24.96" y1="3" x2="70.08" y2="29.04" style="fill:none;stroke:#010101;stroke-linecap:round;stroke-linejoin:round;stroke-width:1.4399999380111694px"/><polyline points="24.96 3.12 23.64 2.4 22.08 1.8 20.4 1.32 18.72 0.96 16.8 0.84 15 0.72 13.2 0.84 11.28 0.96 9.6 1.32 7.92 1.8 6.36 2.4 5.04 3.12 3.72 3.96 2.76 4.8 1.92 5.76 1.32 6.72 0.96 7.8 0.84 8.88 0.96 9.96 1.32 11.04 1.92 12 2.76 12.96 3.72 13.8 5.04 14.64" style="fill:none;stroke:#010101;stroke-linecap:round;stroke-linejoin:bevel;stroke-width:1.4399999380111694px"/><line x1="50.04" y1="40.68" x2="4.92" y2="14.64" style="fill:none;stroke:#010101;stroke-linecap:round;stroke-linejoin:round;stroke-width:1.4399999380111694px"/><polyline points="50.16 40.68 49.92 41.64 49.68 42.6 49.68 43.56 49.68 44.52 49.92 45.48 50.16 46.44" style="fill:none;stroke:#010101;stroke-linecap:round;stroke-linejoin:bevel;stroke-width:1.4399999380111694px"/><line x1="4.92" y1="72.48" x2="50.04" y2="46.44" style="fill:none;stroke:#010101;stroke-linecap:round;stroke-linejoin:round;stroke-width:1.4399999380111694px"/><polyline points="5.04 72.48 3.72 73.32 2.76 74.16 1.92 75.12 1.32 76.08 0.96 77.16 0.84 78.24 0.96 79.32 1.32 80.4 1.92 81.36 2.76 82.32 3.72 83.16 5.04 84 6.36 84.72 7.92 85.32 9.6 85.8 11.28 86.16 13.2 86.28 15 86.4 16.8 86.28 18.72 86.16 20.4 85.8 22.08 85.32 23.64 84.72 24.96 84" style="fill:none;stroke:#010101;stroke-linecap:round;stroke-linejoin:bevel;stroke-width:1.4399999380111694px"/><line x1="70.08" y1="57.96" x2="24.96" y2="84.12" style="fill:none;stroke:#010101;stroke-linecap:round;stroke-linejoin:round;stroke-width:1.4399999380111694px"/><polyline points="70.2 57.96 71.76 58.08 73.44 58.2 75.12 58.2 76.8 58.2 78.48 58.08 80.04 57.96" style="fill:none;stroke:#010101;stroke-linecap:round;stroke-linejoin:bevel;stroke-width:1.4399999380111694px"/><line x1="125.16" y1="84.12" x2="80.04" y2="57.96" style="fill:none;stroke:#010101;stroke-linecap:round;stroke-linejoin:round;stroke-width:1.4399999380111694px"/><polyline points="125.28 84 126.6 84.72 128.16 85.32 129.84 85.8 131.52 86.16 133.44 86.28 135.24 86.4 137.04 86.28 138.96 86.16 140.64 85.8 142.32 85.32 143.88 84.72 145.2 84 146.52 83.16 147.48 82.32 148.32 81.36 148.92 80.4 149.28 79.32 149.4 78.24 149.28 77.16 148.92 76.08 148.32 75.12 147.48 74.16 146.52 73.32 145.2 72.48" style="fill:none;stroke:#010101;stroke-linecap:round;stroke-linejoin:bevel;stroke-width:1.4399999380111694px"/><line x1="100.08" y1="46.44" x2="145.2" y2="72.48" style="fill:none;stroke:#010101;stroke-linecap:round;stroke-linejoin:round;stroke-width:1.4399999380111694px"/><polyline points="100.08 46.44 100.32 45.48 100.56 44.52 100.56 43.56 100.56 42.6 100.32 41.64 100.08 40.68" style="fill:none;stroke:#010101;stroke-linecap:round;stroke-linejoin:bevel;stroke-width:1.4399999380111694px"/><polyline points="125.28 95.64 126.6 96.36 128.16 96.96 129.84 97.44 131.52 97.8 133.44 97.92 135.24 98.04 137.04 97.92 138.96 97.8 140.64 97.44 142.32 96.96 143.88 96.36 145.2 95.64 146.52 94.8 147.48 93.96 148.32 93 148.92 92.04 149.28 90.96 149.4 89.88" style="fill:none;stroke:#010101;stroke-linecap:round;stroke-linejoin:bevel;stroke-width:1.4399999380111694px"/><line x1="125.16" y1="95.64" x2="80.04" y2="69.6" style="fill:none;stroke:#010101;stroke-linecap:round;stroke-linejoin:round;stroke-width:1.4399999380111694px"/><polyline points="0.84 89.88 0.96 90.96 1.32 92.04 1.92 93 2.76 93.96 3.72 94.8 5.04 95.64 6.36 96.36 7.92 96.96 9.6 97.44 11.28 97.8 13.2 97.92 15 98.04 16.8 97.92 18.72 97.8 20.4 97.44 22.08 96.96 23.64 96.36 24.96 95.64" style="fill:none;stroke:#010101;stroke-linecap:round;stroke-linejoin:bevel;stroke-width:1.4399999380111694px"/><line x1="70.08" y1="69.6" x2="24.96" y2="95.64" style="fill:none;stroke:#010101;stroke-linecap:round;stroke-linejoin:round;stroke-width:1.4399999380111694px"/><polyline points="0.84 20.4 0.96 21.48 1.32 22.56 1.92 23.52 2.76 24.48 3.72 25.32 5.04 26.16" style="fill:none;stroke:#010101;stroke-linecap:round;stroke-linejoin:bevel;stroke-width:1.4399999380111694px"/><path d="M80.67,70.15V58.51m-10,0V70.15M45.63,49.87,5.55,26.71" transform="translate(-0.63 -0.55)" style="fill:none;stroke:#010101;stroke-linecap:round;stroke-linejoin:round;stroke-width:1.4399999380111694px"/><polyline points="57.12 77.04 59.04 78 60.96 78.84 63.12 79.68 65.4 80.28 67.68 80.76 70.2 81.12 72.6 81.24 75.12 81.36 77.64 81.24 80.04 81.12 82.56 80.76 84.84 80.28 87.12 79.68 89.28 78.84 91.2 78 93.12 77.04" style="fill:none;stroke:#010101;stroke-linecap:round;stroke-linejoin:bevel;stroke-width:1.4399999380111694px"/><path d="M101.19,47.23V44.11m-51,3.12V44.11M1.35,9.43V21m0,57.84V90.43M150,78.79V90.43m0-81V21M89.67,79.87V80" transform="translate(-0.63 -0.55)" style="fill:none;stroke:#010101;stroke-linecap:round;stroke-linejoin:round;stroke-width:1.4399999380111694px"/></svg>
